!!!OTL@@FUR: Encja i arbui...
!!!OTL@IT: Anche gli alberi sono orgogliosi
!!!OTL@EN: Even the trees
**kern
*clefG2
*k[b-]
*F:
*M3/4
*MM60
*>[A]
*>A
8c
8c
=1
4.f
8e
8d
8c
=2
4f
4f
8a
8cc
=3
4.dd
8cc
8b-
8a
=4
16cc
16b-
[8g
4g]
8cc
8ff
=5
4.ee
8dd
8b-
8dd
=6
4.dd
8cc
8a
8dd
=7
4.cc
8b-
8a
8b-
=8
2a
8cc
8a
=9
4.ee
8dd
8b-
8dd
=10
4.dd
8cc
8a
8dd
=11
4.cc
8b-
8a
8b-
=12
[2a
8a]
8r
==
*-
!!!ARE: Friuli
!!!ENC: Kelly Leistikow
!!!END: 2002/03/07
!!!ref: @{OTL@@FUR}/@{OTL@EN}
